svg/color/jito.svg

<svg xmlns="http://www.w3.org/2000/svg" width="204" height="192" viewBox="0 0 204 192"><path fill="#f9f9f9" fill-rule="evenodd" d="M0 96.005v96.004l102.25-.254 102.25-.255.255-95.75L205.01 0H0zm.48.495c0 52.8.122 74.253.27 47.674s.148-69.779 0-96C.601 21.953.48 43.7.48 96.5M83 3.36c-7.565 1.768-18.693 5.513-23.5 7.91-13.535 6.747-29.575 21.61-37.053 34.333C12.867 61.902 9.499 74.372 9.642 93c.122 15.793 2.088 24.71 8.327 37.759 5.076 10.62 8.863 16.117 16.97 24.635 11.946 12.553 29.919 22.486 47.561 26.284 8.9 1.916 32.257 1.295 40.854-1.086 32.505-9.001 56.438-32.894 65.356-65.244 2.306-8.366 2.716-11.804 2.721-22.848.007-14.026-1.824-23.318-7.067-35.871-5.922-14.178-19.281-30.157-32.864-39.309C135.772 6.722 123.45 2.94 103 2.434c-9.519-.236-16.389.082-20 .926m5.5 13.093c-25.594 4.326-46.06 19.38-57.462 42.268-5.095 10.227-7.007 17.614-7.719 29.82-2.122 36.416 21.357 68.581 57.382 78.609 10.252 2.854 27.629 3.067 37.799.464 31.677-8.109 54.486-33.819 58.534-65.976C180.47 74.339 169.29 48.171 147 31.343c-16.996-12.832-38.419-18.285-58.5-14.89m4 6.121c-1.1.261-5.15 1.195-9 2.076-36.139 8.264-59.102 44.464-52.022 82.012.945 5.015 3.16 11.259 6.15 17.338 3.847 7.822 6.102 10.913 12.772 17.5 12.706 12.549 24.324 18.229 42.142 20.601 7.687 1.023 10.483.958 18.753-.439 16.391-2.77 28.359-8.976 39.705-20.59 7.806-7.99 13.129-16.78 16.695-27.572 2.304-6.972 2.647-9.67 2.669-21 .023-11.743-.247-13.773-2.797-21-8.406-23.83-25.218-39.876-48.738-46.519-7.077-1.999-22.22-3.384-26.329-2.407m20.755 27.247c-.685.435-5.038 4.452-9.672 8.926-12.43 11.998-18.959 12.876-27.786 3.735-2.363-2.447-4.856-4.456-5.538-4.465-1.29-.018-7.259 5.737-7.259 6.999 0 1.281 10.394 10.115 14.21 12.077 2.585 1.329 5.769 1.904 10.5 1.898 9.145-.013 13.85-2.852 27.29-16.464 9.968-10.095 10.402-10.707 8.559-12.08-2.081-1.551-8.257-1.926-10.304-.626m9.388 11.114C115.795 68.115 114 72.026 114 79.772c0 8.724 3.063 13.856 15.911 26.651 9.22 9.181 11.207 10.724 12.464 9.681 2.11-1.751 2.895-6.264 1.656-9.521-.578-1.521-4.64-6.255-9.027-10.52-12.949-12.588-13.798-17.851-4.503-27.891l5.415-5.848-3.779-3.69-3.779-3.69zm-64.608 9.999c-.569 1.064-1.035 3.6-1.035 5.635 0 3.304.95 4.676 8.874 12.816 4.88 5.013 9.38 10.098 10 11.299 2.84 5.509.071 13.126-6.906 18.996-1.632 1.374-2.968 3.045-2.968 3.713s1.516 2.684 3.369 4.48l3.37 3.266 5.205-5.319c7.408-7.572 9.481-11.903 9.485-19.82.003-4.336-.601-7.665-1.813-10-1.757-3.385-24.336-27-25.815-27-.402 0-1.196.87-1.766 1.934m46.649 36.453c-2.099.783-4.799 2.234-6 3.225C93.111 115.212 76 132.594 76 133.655c0 1.693 6.308 3.557 9.406 2.779 1.435-.36 5.645-3.642 9.358-7.294 11.243-11.061 12.832-12.14 17.878-12.14 5.567 0 7.591 1.015 13.687 6.866l4.829 4.634 3.444-3.943 3.443-3.942-4.772-4.889c-2.625-2.688-6.56-5.811-8.744-6.94-5.066-2.618-14.743-3.3-19.845-1.399"/><path fill="#0a0a0a" fill-rule="evenodd" d="M83 3.36c-7.565 1.768-18.693 5.513-23.5 7.91-13.535 6.747-29.575 21.61-37.053 34.333C12.867 61.902 9.499 74.372 9.642 93c.122 15.793 2.088 24.71 8.327 37.759 5.076 10.62 8.863 16.117 16.97 24.635 11.946 12.553 29.919 22.486 47.561 26.284 8.9 1.916 32.257 1.295 40.854-1.086 32.505-9.001 56.438-32.894 65.356-65.244 2.306-8.366 2.716-11.804 2.721-22.848.007-14.026-1.824-23.318-7.067-35.871-5.922-14.178-19.281-30.157-32.864-39.309C135.772 6.722 123.45 2.94 103 2.434c-9.519-.236-16.389.082-20 .926m5.5 13.093c-25.594 4.326-46.06 19.38-57.462 42.268-5.095 10.227-7.007 17.614-7.719 29.82-2.122 36.416 21.357 68.581 57.382 78.609 10.252 2.854 27.629 3.067 37.799.464 31.677-8.109 54.486-33.819 58.534-65.976C180.47 74.339 169.29 48.171 147 31.343c-16.996-12.832-38.419-18.285-58.5-14.89m4 6.121c-1.1.261-5.15 1.195-9 2.076-36.139 8.264-59.102 44.464-52.022 82.012.945 5.015 3.16 11.259 6.15 17.338 3.847 7.822 6.102 10.913 12.772 17.5 12.706 12.549 24.324 18.229 42.142 20.601 7.687 1.023 10.483.958 18.753-.439 16.391-2.77 28.359-8.976 39.705-20.59 7.806-7.99 13.129-16.78 16.695-27.572 2.304-6.972 2.647-9.67 2.669-21 .023-11.743-.247-13.773-2.797-21-8.406-23.83-25.218-39.876-48.738-46.519-7.077-1.999-22.22-3.384-26.329-2.407m20.755 27.247c-.685.435-5.038 4.452-9.672 8.926-12.43 11.998-18.959 12.876-27.786 3.735-2.363-2.447-4.856-4.456-5.538-4.465-1.29-.018-7.259 5.737-7.259 6.999 0 1.281 10.394 10.115 14.21 12.077 2.585 1.329 5.769 1.904 10.5 1.898 9.145-.013 13.85-2.852 27.29-16.464 9.968-10.095 10.402-10.707 8.559-12.08-2.081-1.551-8.257-1.926-10.304-.626m9.388 11.114C115.795 68.115 114 72.026 114 79.772c0 8.724 3.063 13.856 15.911 26.651 9.22 9.181 11.207 10.724 12.464 9.681 2.11-1.751 2.895-6.264 1.656-9.521-.578-1.521-4.64-6.255-9.027-10.52-12.949-12.588-13.798-17.851-4.503-27.891l5.415-5.848-3.779-3.69-3.779-3.69zm-64.608 9.999c-.569 1.064-1.035 3.6-1.035 5.635 0 3.304.95 4.676 8.874 12.816 4.88 5.013 9.38 10.098 10 11.299 2.84 5.509.071 13.126-6.906 18.996-1.632 1.374-2.968 3.045-2.968 3.713s1.516 2.684 3.369 4.48l3.37 3.266 5.205-5.319c7.408-7.572 9.481-11.903 9.485-19.82.003-4.336-.601-7.665-1.813-10-1.757-3.385-24.336-27-25.815-27-.402 0-1.196.87-1.766 1.934m46.649 36.453c-2.099.783-4.799 2.234-6 3.225C93.111 115.212 76 132.594 76 133.655c0 1.693 6.308 3.557 9.406 2.779 1.435-.36 5.645-3.642 9.358-7.294 11.243-11.061 12.832-12.14 17.878-12.14 5.567 0 7.591 1.015 13.687 6.866l4.829 4.634 3.444-3.943 3.443-3.942-4.772-4.889c-2.625-2.688-6.56-5.811-8.744-6.94-5.066-2.618-14.743-3.3-19.845-1.399"/></svg>

<svg xmlns="http://www.w3.org/2000/svg" width="204" height="192" viewBox="0 0 204 192" version="1.1"><path d="M 0 96.005 L 0 192.009 102.250 191.755 L 204.500 191.500 204.755 95.750 L 205.010 0 102.505 0 L 0 0 0 96.005 M 0.480 96.500 C 0.480 149.300, 0.602 170.753, 0.750 144.174 C 0.898 117.595, 0.898 74.395, 0.750 48.174 C 0.601 21.953, 0.480 43.700, 0.480 96.500 M 83 3.360 C 75.435 5.128, 64.307 8.873, 59.500 11.270 C 45.965 18.017, 29.925 32.880, 22.447 45.603 C 12.867 61.902, 9.499 74.372, 9.642 93 C 9.764 108.793, 11.730 117.710, 17.969 130.759 C 23.045 141.379, 26.832 146.876, 34.939 155.394 C 46.885 167.947, 64.858 177.880, 82.500 181.678 C 91.400 183.594, 114.757 182.973, 123.354 180.592 C 155.859 171.591, 179.792 147.698, 188.710 115.348 C 191.016 106.982, 191.426 103.544, 191.431 92.500 C 191.438 78.474, 189.607 69.182, 184.364 56.629 C 178.442 42.451, 165.083 26.472, 151.500 17.320 C 135.772 6.722, 123.450 2.940, 103 2.434 C 93.481 2.198, 86.611 2.516, 83 3.360 M 88.500 16.453 C 62.906 20.779, 42.440 35.833, 31.038 58.721 C 25.943 68.948, 24.031 76.335, 23.319 88.541 C 21.197 124.957, 44.676 157.122, 80.701 167.150 C 90.953 170.004, 108.330 170.217, 118.500 167.614 C 150.177 159.505, 172.986 133.795, 177.034 101.638 C 180.470 74.339, 169.290 48.171, 147 31.343 C 130.004 18.511, 108.581 13.058, 88.500 16.453 M 92.500 22.574 C 91.400 22.835, 87.350 23.769, 83.500 24.650 C 47.361 32.914, 24.398 69.114, 31.478 106.662 C 32.423 111.677, 34.638 117.921, 37.628 124 C 41.475 131.822, 43.730 134.913, 50.400 141.500 C 63.106 154.049, 74.724 159.729, 92.542 162.101 C 100.229 163.124, 103.025 163.059, 111.295 161.662 C 127.686 158.892, 139.654 152.686, 151 141.072 C 158.806 133.082, 164.129 124.292, 167.695 113.500 C 169.999 106.528, 170.342 103.830, 170.364 92.500 C 170.387 80.757, 170.117 78.727, 167.567 71.500 C 159.161 47.670, 142.349 31.624, 118.829 24.981 C 111.752 22.982, 96.609 21.597, 92.500 22.574 M 113.255 49.821 C 112.570 50.256, 108.217 54.273, 103.583 58.747 C 91.153 70.745, 84.624 71.623, 75.797 62.482 C 73.434 60.035, 70.941 58.026, 70.259 58.017 C 68.969 57.999, 63 63.754, 63 65.016 C 63 66.297, 73.394 75.131, 77.210 77.093 C 79.795 78.422, 82.979 78.997, 87.710 78.991 C 96.855 78.978, 101.560 76.139, 115 62.527 C 124.968 52.432, 125.402 51.820, 123.559 50.447 C 121.478 48.896, 115.302 48.521, 113.255 49.821 M 122.643 60.935 C 115.795 68.115, 114 72.026, 114 79.772 C 114 88.496, 117.063 93.628, 129.911 106.423 C 139.131 115.604, 141.118 117.147, 142.375 116.104 C 144.485 114.353, 145.270 109.840, 144.031 106.583 C 143.453 105.062, 139.391 100.328, 135.004 96.063 C 122.055 83.475, 121.206 78.212, 130.501 68.172 L 135.916 62.324 132.137 58.634 L 128.358 54.944 122.643 60.935 M 58.035 70.934 C 57.466 71.998, 57 74.534, 57 76.569 C 57 79.873, 57.950 81.245, 65.874 89.385 C 70.754 94.398, 75.254 99.483, 75.874 100.684 C 78.714 106.193, 75.945 113.810, 68.968 119.680 C 67.336 121.054, 66 122.725, 66 123.393 C 66 124.061, 67.516 126.077, 69.369 127.873 L 72.739 131.139 77.944 125.820 C 85.352 118.248, 87.425 113.917, 87.429 106 C 87.432 101.664, 86.828 98.335, 85.616 96 C 83.859 92.615, 61.280 69, 59.801 69 C 59.399 69, 58.605 69.870, 58.035 70.934 M 104.684 107.387 C 102.585 108.170, 99.885 109.621, 98.684 110.612 C 93.111 115.212, 76 132.594, 76 133.655 C 76 135.348, 82.308 137.212, 85.406 136.434 C 86.841 136.074, 91.051 132.792, 94.764 129.140 C 106.007 118.079, 107.596 117, 112.642 117 C 118.209 117, 120.233 118.015, 126.329 123.866 L 131.158 128.500 134.602 124.557 L 138.045 120.615 133.273 115.726 C 130.648 113.038, 126.713 109.915, 124.529 108.786 C 119.463 106.168, 109.786 105.486, 104.684 107.387" stroke="none" fill="#f9f9f9" fill-rule="evenodd"/><path d="M 83 3.360 C 75.435 5.128, 64.307 8.873, 59.500 11.270 C 45.965 18.017, 29.925 32.880, 22.447 45.603 C 12.867 61.902, 9.499 74.372, 9.642 93 C 9.764 108.793, 11.730 117.710, 17.969 130.759 C 23.045 141.379, 26.832 146.876, 34.939 155.394 C 46.885 167.947, 64.858 177.880, 82.500 181.678 C 91.400 183.594, 114.757 182.973, 123.354 180.592 C 155.859 171.591, 179.792 147.698, 188.710 115.348 C 191.016 106.982, 191.426 103.544, 191.431 92.500 C 191.438 78.474, 189.607 69.182, 184.364 56.629 C 178.442 42.451, 165.083 26.472, 151.500 17.320 C 135.772 6.722, 123.450 2.940, 103 2.434 C 93.481 2.198, 86.611 2.516, 83 3.360 M 88.500 16.453 C 62.906 20.779, 42.440 35.833, 31.038 58.721 C 25.943 68.948, 24.031 76.335, 23.319 88.541 C 21.197 124.957, 44.676 157.122, 80.701 167.150 C 90.953 170.004, 108.330 170.217, 118.500 167.614 C 150.177 159.505, 172.986 133.795, 177.034 101.638 C 180.470 74.339, 169.290 48.171, 147 31.343 C 130.004 18.511, 108.581 13.058, 88.500 16.453 M 92.500 22.574 C 91.400 22.835, 87.350 23.769, 83.500 24.650 C 47.361 32.914, 24.398 69.114, 31.478 106.662 C 32.423 111.677, 34.638 117.921, 37.628 124 C 41.475 131.822, 43.730 134.913, 50.400 141.500 C 63.106 154.049, 74.724 159.729, 92.542 162.101 C 100.229 163.124, 103.025 163.059, 111.295 161.662 C 127.686 158.892, 139.654 152.686, 151 141.072 C 158.806 133.082, 164.129 124.292, 167.695 113.500 C 169.999 106.528, 170.342 103.830, 170.364 92.500 C 170.387 80.757, 170.117 78.727, 167.567 71.500 C 159.161 47.670, 142.349 31.624, 118.829 24.981 C 111.752 22.982, 96.609 21.597, 92.500 22.574 M 113.255 49.821 C 112.570 50.256, 108.217 54.273, 103.583 58.747 C 91.153 70.745, 84.624 71.623, 75.797 62.482 C 73.434 60.035, 70.941 58.026, 70.259 58.017 C 68.969 57.999, 63 63.754, 63 65.016 C 63 66.297, 73.394 75.131, 77.210 77.093 C 79.795 78.422, 82.979 78.997, 87.710 78.991 C 96.855 78.978, 101.560 76.139, 115 62.527 C 124.968 52.432, 125.402 51.820, 123.559 50.447 C 121.478 48.896, 115.302 48.521, 113.255 49.821 M 122.643 60.935 C 115.795 68.115, 114 72.026, 114 79.772 C 114 88.496, 117.063 93.628, 129.911 106.423 C 139.131 115.604, 141.118 117.147, 142.375 116.104 C 144.485 114.353, 145.270 109.840, 144.031 106.583 C 143.453 105.062, 139.391 100.328, 135.004 96.063 C 122.055 83.475, 121.206 78.212, 130.501 68.172 L 135.916 62.324 132.137 58.634 L 128.358 54.944 122.643 60.935 M 58.035 70.934 C 57.466 71.998, 57 74.534, 57 76.569 C 57 79.873, 57.950 81.245, 65.874 89.385 C 70.754 94.398, 75.254 99.483, 75.874 100.684 C 78.714 106.193, 75.945 113.810, 68.968 119.680 C 67.336 121.054, 66 122.725, 66 123.393 C 66 124.061, 67.516 126.077, 69.369 127.873 L 72.739 131.139 77.944 125.820 C 85.352 118.248, 87.425 113.917, 87.429 106 C 87.432 101.664, 86.828 98.335, 85.616 96 C 83.859 92.615, 61.280 69, 59.801 69 C 59.399 69, 58.605 69.870, 58.035 70.934 M 104.684 107.387 C 102.585 108.170, 99.885 109.621, 98.684 110.612 C 93.111 115.212, 76 132.594, 76 133.655 C 76 135.348, 82.308 137.212, 85.406 136.434 C 86.841 136.074, 91.051 132.792, 94.764 129.140 C 106.007 118.079, 107.596 117, 112.642 117 C 118.209 117, 120.233 118.015, 126.329 123.866 L 131.158 128.500 134.602 124.557 L 138.045 120.615 133.273 115.726 C 130.648 113.038, 126.713 109.915, 124.529 108.786 C 119.463 106.168, 109.786 105.486, 104.684 107.387" stroke="none" fill="#0a0a0a" fill-rule="evenodd"/></svg>
